src/dsmComponents/Icons/location-pin-lost-20px.svg

<?xml version="1.0" encoding="UTF-8"?>
<svg width="18px" height="20px" viewBox="0 0 18 20" version="1.1" xmlns="http://www.w3.org/2000/svg" xmlns:xlink="http://www.w3.org/1999/xlink">
    <!-- Generator: Sketch 59.1 (86144) - https://sketch.com -->
    <title>location-pin-lost-20px</title>
    <desc>Created with Sketch.</desc>
    <defs>
        <path d="M0.589842086,2.13723598 C0.781626641,1.91723406 1.1219767,1.88853816 1.35067753,2.07375716 L1.35067753,2.07375716 L17.807233,15.4095253 C18.0350334,15.5938747 18.0656469,15.9225732 17.8738624,16.1434447 L17.8738624,16.1434447 L17.4092575,16.6773624 C17.2183734,16.8973643 16.8780233,16.9269298 16.6493225,16.7417108 L16.6493225,16.7417108 L14.5982182,15.0790876 C12.6866754,17.6069357 10.6508778,19.6026052 10.5095155,19.7391282 C10.3294361,19.9130427 10.1493567,20 9.87923764,20 C9.60911855,20 9.42903916,19.9130427 9.24895976,19.7391282 C8.97884067,19.4782563 1.7756649,12.4347168 1.7756649,7.8259811 C1.7756649,6.82771155 1.95754509,5.9155297 2.26818204,5.08682684 L2.26818204,5.08682684 L0.192767022,3.40594266 C-0.035033412,3.22072366 -0.065646909,2.89202515 0.126137646,2.67202323 L0.126137646,2.67202323 Z M9.8791476,-1.13686838e-13 C13.8408943,-1.13686838e-13 17.9827203,2.95654745 17.9827203,7.82615501 C17.9827203,9.13486204 17.4001635,10.6392229 16.5618939,12.1296707 L16.5618939,12.1296707 L12.3912552,8.75051087 C12.502004,8.46268228 12.5803385,8.15920138 12.5803385,7.82615501 C12.5803385,6.34788129 11.4098225,5.21743667 9.8791476,5.21743667 C9.36051895,5.21743667 8.88871093,5.35482917 8.48623349,5.58526596 L8.48623349,5.58526596 L4.27597725,2.17306237 C5.81385528,0.778267637 7.86405918,-1.13686838e-13 9.8791476,-1.13686838e-13 Z" id="path-1"></path>
    </defs>
    <g id="Final" stroke="none" stroke-width="1" fill="none" fill-rule="evenodd">
        <g id="All-Nucleo-Icons" transform="translate(-464.000000, -4375.000000)">
            <g id="Solo/Nucleo/20px/location-pin-lost" transform="translate(461.000000, 4373.000000)">
                <g transform="translate(2.000000, 2.000000)" id="location-lost">
                    <g>
                        <g id="Group-6" transform="translate(0.200000, 0.000000)">
                            <g id="Colour/Default-Colour" transform="translate(0.800000, 0.000000)">
                                <mask id="mask-2" fill="white">
                                    <use xlink:href="#path-1"></use>
                                </mask>
                                <g id="Mask"></g>
                                <g id="colour/neutral/chia" mask="url(#mask-2)" fill="#737373">
                                    <g transform="translate(-23.000000, -23.000000)" id="Colour">
                                        <rect x="0" y="0" width="64" height="64"></rect>
                                    </g>
                                </g>
                            </g>
                        </g>
                    </g>
                </g>
            </g>
        </g>
    </g>
</svg>

<svg width="18" height="20" xmlns="http://www.w3.org/2000/svg" xmlns:xlink="http://www.w3.org/1999/xlink"><defs><path d="M.59 2.137a.554.554 0 01.76-.063L17.808 15.41a.509.509 0 01.067.733l-.465.534a.553.553 0 01-.76.065l-2.05-1.663a45.341 45.341 0 01-4.09 4.66.831.831 0 01-.63.261.831.831 0 01-.63-.26c-.27-.262-7.473-7.305-7.473-11.914 0-.998.182-1.91.492-2.74L.193 3.407a.509.509 0 01-.067-.734zM9.88 0c3.96 0 8.103 2.957 8.103 7.826 0 1.309-.583 2.813-1.421 4.304l-4.17-3.38c.11-.287.188-.59.188-.924 0-1.478-1.17-2.609-2.7-2.609-.52 0-.991.138-1.394.368l-4.21-3.412A8.45 8.45 0 019.879 0z" id="location-pin-lost-20px_svg__a"/></defs><use fill="#737373" xlink:href="#location-pin-lost-20px_svg__a" fill-rule="evenodd"/></svg>
